assets/icons/solid/compass-drafting.svg

<svg xmlns="http://www.w3.org/2000/svg" viewBox="0 0 512 512"><!--! Font Awesome Free 6.1.2 by @fontawesome - https://fontawesome.com License - https://fontawesome.com/license/free (Icons: CC BY 4.0, Fonts: SIL OFL 1.1, Code: MIT License) Copyright 2022 Fonticons, Inc. --><path d="M352 96C352 110.3 348.9 123.9 343.2 136.2L396 227.4C372.3 252.7 341.9 271.5 307.6 281L256 192H255.1L187.9 309.5C209.4 316.3 232.3 320 256 320C326.7 320 389.8 287.3 430.9 235.1C441.9 222.2 462.1 219.1 475.9 231C489.7 242.1 491.9 262.2 480.8 276C428.1 341.8 346.1 384 256 384C220.6 384 186.6 377.6 155.3 365.9L98.65 463.7C93.95 471.8 86.97 478.4 78.58 482.6L23.16 510.3C18.2 512.8 12.31 512.5 7.588 509.6C2.871 506.7 0 501.5 0 496V440.6C0 432.2 2.228 423.9 6.46 416.5L66.49 312.9C53.66 301.6 41.84 289.3 31.18 276C20.13 262.2 22.34 242.1 36.13 231C49.92 219.1 70.06 222.2 81.12 235.1C86.79 243.1 92.87 249.8 99.34 256.1L168.8 136.2C163.1 123.9 160 110.3 160 96C160 42.98 202.1 0 256 0C309 0 352 42.98 352 96L352 96zM256 128C273.7 128 288 113.7 288 96C288 78.33 273.7 64 256 64C238.3 64 224 78.33 224 96C224 113.7 238.3 128 256 128zM372.1 393.9C405.5 381.1 435.5 363.2 461.8 341L505.5 416.5C509.8 423.9 512 432.2 512 440.6V496C512 501.5 509.1 506.7 504.4 509.6C499.7 512.5 493.8 512.8 488.8 510.3L433.4 482.6C425 478.4 418.1 471.8 413.3 463.7L372.1 393.9z"/></svg>

<svg xmlns="http://www.w3.org/2000/svg" viewBox="0 0 512 512"><!--! Font Awesome Pro 6.2.0 by @fontawesome - https://fontawesome.com License - https://fontawesome.com/license (Commercial License) Copyright 2022 Fonticons, Inc. --><path d="M352 96c0 14.3-3.1 27.9-8.8 40.2L396 227.4c-23.7 25.3-54.2 44.1-88.5 53.6L256 192h0 0l-68 117.5c21.5 6.8 44.3 10.5 68.1 10.5c70.7 0 133.8-32.7 174.9-84c11.1-13.8 31.2-16 45-5s16 31.2 5 45C428.1 341.8 347 384 256 384c-35.4 0-69.4-6.4-100.7-18.1L98.7 463.7C94 471.8 87 478.4 78.6 482.6L23.2 510.3c-5 2.5-10.9 2.2-15.6-.7S0 501.5 0 496V440.6c0-8.4 2.2-16.7 6.5-24.1l60-103.7C53.7 301.6 41.8 289.3 31.2 276c-11.1-13.8-8.8-33.9 5-45s33.9-8.8 45 5c5.7 7.1 11.8 13.8 18.2 20.1l69.4-119.9c-5.6-12.2-8.8-25.8-8.8-40.2c0-53 43-96 96-96s96 43 96 96zm21 297.9c32.6-12.8 62.5-30.8 88.9-52.9l43.7 75.5c4.2 7.3 6.5 15.6 6.5 24.1V496c0 5.5-2.9 10.7-7.6 13.6s-10.6 3.2-15.6 .7l-55.4-27.7c-8.4-4.2-15.4-10.8-20.1-18.9L373 393.9zM256 128c17.7 0 32-14.3 32-32s-14.3-32-32-32s-32 14.3-32 32s14.3 32 32 32z"/></svg>
